client/components/jetpack/daily-backup-status/status-card/icons/cloud-pending-gray-30.svg

<svg width="48" height="50" viewBox="0 0 48 50" fill="none" xmlns="http://www.w3.org/2000/svg">
    <mask id="mask0" mask-type="alpha" maskUnits="userSpaceOnUse" x="0" y="8" width="48" height="33">
        <path d="M38.7 20.9463C37.34 14.0007 31.28 8.78648 24 8.78648C18.22 8.78648 13.2 12.0882 10.7 16.9199C4.68 17.5641 0 22.6979 0 28.9187C0 35.5825 5.38 40.998 12 40.998H38C43.52 40.998 48 36.4884 48 30.9319C48 25.617 43.9 21.3087 38.7 20.9463Z" fill="#8C8F94"/>
    </mask>
    <g mask="url(#mask0)">
        <rect y="0.733475" width="48" height="48.3173" fill="#8C8F94"/>
    </g>
    <path d="M25.0542 33.7474C25.0542 34.4388 24.4817 35 23.7746 35C23.0675 35 22.4949 34.4388 22.4949 33.7474C22.4949 33.0559 23.0675 32.4947 23.7746 32.4947C24.4817 32.4947 25.0542 33.0559 25.0542 33.7474ZM23.7746 18C22.9673 18 22.3121 18.6413 22.3121 19.4316C22.3121 20.2218 22.9673 20.8632 23.7746 20.8632C24.5818 20.8632 25.237 20.2218 25.237 19.4316C25.237 18.6413 24.5818 18 23.7746 18ZM31.0867 25.6947C31.5905 25.6947 32 26.0963 32 26.5895C32 27.0834 31.5905 27.4842 31.0867 27.4842C30.5822 27.4842 30.1734 27.0841 30.1734 26.5895C30.1734 26.0963 30.5822 25.6947 31.0867 25.6947ZM15 26.5895C15 27.3804 15.6552 28.0211 16.4624 28.0211C17.2697 28.0211 17.9249 27.3804 17.9249 26.5895C17.9249 25.7992 17.2697 25.1579 16.4624 25.1579C15.6552 25.1579 15 25.7992 15 26.5895ZM28.8931 20.8632C29.296 20.8632 29.6243 21.1845 29.6243 21.5789C29.6243 21.9748 29.296 22.2962 28.8931 22.2947C28.4902 22.2947 28.1619 21.9748 28.1619 21.5804C28.1619 21.1845 28.4902 20.8632 28.8931 20.8632ZM28.8931 30.5263C29.4985 30.5263 29.9899 31.0073 29.9899 31.6C29.9899 32.1927 29.4985 32.6744 28.8916 32.6737C28.2876 32.6737 27.7962 32.1934 27.7962 31.6007C27.7962 31.0073 28.2876 30.5263 28.8931 30.5263ZM18.6561 20.1474C19.4633 20.1474 20.1185 20.7887 20.1185 21.5789C20.1185 22.3692 19.4633 23.0105 18.6553 23.0105C17.8488 23.0105 17.1936 22.3699 17.1936 21.5789C17.1936 20.788 17.8488 20.1474 18.6561 20.1474ZM18.6561 30.1684C19.4633 30.1684 20.1185 30.8098 20.1185 31.6C20.1185 32.3902 19.4633 33.0316 18.6553 33.0316C17.8488 33.0316 17.1936 32.3909 17.1936 31.6C17.1936 30.8091 17.8488 30.1684 18.6561 30.1684Z" fill="#fff"/>
</svg>

<svg width="48" height="50" fill="none" xmlns="http://www.w3.org/2000/svg"><path d="M38.7 20.946c-1.36-6.945-7.42-12.16-14.7-12.16-5.78 0-10.8 3.302-13.3 8.134C4.68 17.564 0 22.698 0 28.919c0 6.664 5.38 12.079 12 12.079h26c5.52 0 10-4.51 10-10.066a9.99 9.99 0 00-9.3-9.986z" fill="#8C8F94"/><path d="M25.054 33.747c0 .692-.572 1.253-1.28 1.253-.707 0-1.28-.561-1.28-1.253 0-.691.573-1.252 1.28-1.252.708 0 1.28.56 1.28 1.252zM23.774 18c-.807 0-1.462.641-1.462 1.432 0 .79.655 1.431 1.463 1.431.807 0 1.462-.641 1.462-1.431S24.582 18 23.775 18zm7.313 7.695c.503 0 .913.401.913.895 0 .493-.41.894-.913.894a.904.904 0 01-.914-.895c0-.493.41-.894.914-.894zM15 26.59c0 .79.655 1.431 1.462 1.431.808 0 1.463-.64 1.463-1.431 0-.79-.655-1.432-1.463-1.432-.807 0-1.462.641-1.462 1.431zm13.893-5.727c.403 0 .731.322.731.716a.723.723 0 01-.73.716.724.724 0 01-.732-.715c0-.395.328-.717.731-.717zm0 9.663c.605 0 1.097.481 1.097 1.074 0 .593-.491 1.074-1.098 1.074-.604 0-1.096-.48-1.096-1.073 0-.594.492-1.075 1.097-1.075zM18.656 20.147c.807 0 1.463.642 1.463 1.432 0 .79-.656 1.431-1.464 1.431-.806 0-1.461-.64-1.461-1.431s.655-1.432 1.462-1.432zm0 10.021c.807 0 1.463.642 1.463 1.432 0 .79-.656 1.432-1.464 1.432-.806 0-1.461-.641-1.461-1.432 0-.79.655-1.432 1.462-1.432z" fill="#fff"/></svg>
